flaticon/gastronomy/scale.svg

<svg xmlns="http://www.w3.org/2000/svg" width="32" height="32" viewBox="0 0 24 24">
    <path d="M11.15625 13.617188C11.15625 14.554688 11.921875 15.320312 12.863281 15.320312 13.148438 15.320312 13.746094 15.320312 15.472656 11.78125 15.578125 11.558594 15.535156 11.292969 15.359375 11.117188 15.183594 10.945312 14.921875 10.898438 14.699219 11.007812 11.15625 12.730469 11.15625 13.328125 11.15625 13.617188zM12.824219 14.476562C12.378906 14.457031 12.019531 14.097656 12 13.652344 12.105469 13.476562 12.714844 12.96875 14.359375 12.117188 13.511719 13.761719 13.003906 14.375 12.824219 14.476562zM11.578125 10.527344L12 10.527344C12.234375 10.527344 12.421875 10.339844 12.421875 10.105469 12.421875 9.871094 12.234375 9.683594 12 9.683594L11.578125 9.683594C11.347656 9.683594 11.15625 9.871094 11.15625 10.105469 11.15625 10.339844 11.347656 10.527344 11.578125 10.527344zM12 17.683594L11.578125 17.683594C11.347656 17.683594 11.15625 17.871094 11.15625 18.105469 11.15625 18.339844 11.347656 18.527344 11.578125 18.527344L12 18.527344C12.234375 18.527344 12.421875 18.339844 12.421875 18.105469 12.421875 17.871094 12.234375 17.683594 12 17.683594zM8.210938 13.472656L7.789062 13.472656C7.554688 13.472656 7.367188 13.660156 7.367188 13.894531 7.367188 14.128906 7.554688 14.316406 7.789062 14.316406L8.210938 14.316406C8.445312 14.316406 8.632812 14.128906 8.632812 13.894531 8.632812 13.660156 8.445312 13.472656 8.210938 13.472656zM15.367188 13.894531C15.367188 14.128906 15.554688 14.316406 15.789062 14.316406L16.210938 14.316406C16.445312 14.316406 16.632812 14.128906 16.632812 13.894531 16.632812 13.660156 16.445312 13.472656 16.210938 13.472656L15.789062 13.472656C15.554688 13.472656 15.367188 13.660156 15.367188 13.894531zM15.367188 13.894531"/>
    <path d="M 21.683594 0.421875 L 21.683594 0 L 2.316406 0 L 2.316406 0.421875 C 2.316406 3.300781 5.234375 5.898438 9.050781 6.808594 L 9.050781 8.730469 C 7.050781 9.785156 5.683594 11.886719 5.683594 14.304688 C 5.683594 15.207031 5.878906 16.0625 6.222656 16.84375 L 4.78125 16.84375 C 4.253906 16.84375 3.757812 17.101562 3.453125 17.535156 C 3.148438 17.96875 3.078125 18.523438 3.257812 19.019531 L 4.457031 22.316406 L 6.449219 22.316406 C 6.273438 22.804688 5.8125 23.15625 5.261719 23.15625 C 5.03125 23.15625 4.84375 23.347656 4.84375 23.578125 C 4.84375 23.8125 5.03125 24 5.261719 24 C 6.28125 24 7.128906 23.273438 7.324219 22.316406 L 17.09375 22.316406 C 17.289062 23.273438 18.140625 24 19.15625 24 C 19.390625 24 19.578125 23.8125 19.578125 23.578125 C 19.578125 23.347656 19.390625 23.15625 19.15625 23.15625 C 18.609375 23.15625 18.148438 22.804688 17.972656 22.316406 L 19.964844 22.316406 L 21.164062 19.019531 C 21.34375 18.523438 21.273438 17.96875 20.96875 17.535156 C 20.664062 17.101562 20.167969 16.84375 19.640625 16.84375 L 17.75 16.84375 C 18.09375 16.0625 18.289062 15.207031 18.289062 14.304688 C 18.289062 11.898438 16.933594 9.804688 14.949219 8.742188 L 14.949219 6.808594 C 18.765625 5.898438 21.683594 3.300781 21.683594 0.421875 Z M 3.1875 0.84375 L 20.8125 0.84375 C 20.53125 2.976562 18.128906 5.199219 14.710938 6 L 14.4375 6.058594 C 14.101562 6.132812 13.757812 6.183594 13.414062 6.226562 C 13.308594 6.238281 13.203125 6.25 13.09375 6.261719 C 12.972656 6.273438 12.851562 6.28125 12.730469 6.289062 C 12.535156 6.300781 12.339844 6.308594 12.140625 6.3125 C 12.046875 6.3125 11.953125 6.3125 11.859375 6.3125 C 11.660156 6.308594 11.464844 6.300781 11.269531 6.289062 C 11.148438 6.28125 11.023438 6.273438 10.902344 6.261719 C 10.796875 6.25 10.691406 6.238281 10.585938 6.226562 C 10.242188 6.183594 9.898438 6.132812 9.558594 6.058594 L 9.285156 6 C 5.871094 5.199219 3.46875 2.976562 3.1875 0.84375 Z M 17.300781 17.683594 L 19.640625 17.683594 C 19.898438 17.683594 20.128906 17.804688 20.277344 18.015625 C 20.425781 18.230469 20.460938 18.488281 20.375 18.730469 L 19.375 21.472656 L 5.042969 21.472656 L 4.046875 18.730469 C 3.960938 18.488281 3.992188 18.230469 4.140625 18.015625 C 4.289062 17.804688 4.523438 17.683594 4.78125 17.683594 L 6.675781 17.683594 C 6.683594 17.695312 6.691406 17.707031 6.699219 17.71875 C 6.75 17.796875 6.800781 17.871094 6.851562 17.945312 C 6.902344 18.015625 6.953125 18.082031 7.003906 18.148438 C 7.089844 18.257812 7.175781 18.363281 7.269531 18.46875 C 7.324219 18.53125 7.382812 18.597656 7.441406 18.65625 C 7.507812 18.726562 7.578125 18.796875 7.648438 18.863281 C 7.695312 18.90625 7.746094 18.953125 7.796875 18.996094 C 7.929688 19.117188 8.066406 19.226562 8.207031 19.335938 C 8.246094 19.363281 8.285156 19.394531 8.324219 19.421875 C 8.417969 19.488281 8.511719 19.550781 8.605469 19.613281 C 8.632812 19.628906 8.660156 19.644531 8.6875 19.664062 C 8.863281 19.773438 9.046875 19.871094 9.230469 19.960938 C 9.273438 19.980469 9.3125 20.003906 9.355469 20.019531 C 9.453125 20.066406 9.554688 20.113281 9.660156 20.15625 C 9.710938 20.175781 9.765625 20.191406 9.816406 20.210938 C 9.972656 20.269531 10.128906 20.320312 10.289062 20.367188 C 10.378906 20.390625 10.472656 20.414062 10.566406 20.4375 C 10.636719 20.453125 10.707031 20.472656 10.78125 20.488281 C 10.945312 20.519531 11.109375 20.542969 11.273438 20.5625 C 11.324219 20.570312 11.375 20.574219 11.425781 20.578125 C 11.613281 20.59375 11.800781 20.605469 11.988281 20.605469 C 12.175781 20.605469 12.363281 20.59375 12.546875 20.578125 C 12.597656 20.574219 12.648438 20.570312 12.699219 20.5625 C 12.867188 20.542969 13.03125 20.519531 13.195312 20.488281 C 13.265625 20.472656 13.335938 20.453125 13.410156 20.4375 C 13.503906 20.414062 13.59375 20.390625 13.6875 20.367188 C 13.847656 20.320312 14.003906 20.269531 14.15625 20.210938 C 14.210938 20.191406 14.261719 20.175781 14.316406 20.15625 C 14.417969 20.113281 14.519531 20.066406 14.621094 20.019531 C 14.660156 20.003906 14.703125 19.980469 14.742188 19.960938 C 14.929688 19.871094 15.109375 19.773438 15.285156 19.664062 C 15.316406 19.644531 15.34375 19.628906 15.371094 19.613281 C 15.464844 19.550781 15.558594 19.488281 15.648438 19.421875 C 15.6875 19.394531 15.726562 19.363281 15.765625 19.335938 C 15.910156 19.226562 16.046875 19.117188 16.179688 18.996094 C 16.230469 18.953125 16.277344 18.90625 16.328125 18.863281 C 16.398438 18.796875 16.464844 18.726562 16.53125 18.65625 C 16.59375 18.597656 16.648438 18.53125 16.707031 18.46875 C 16.796875 18.363281 16.886719 18.257812 16.972656 18.148438 C 17.023438 18.082031 17.074219 18.015625 17.121094 17.945312 C 17.175781 17.871094 17.226562 17.796875 17.277344 17.71875 C 17.28125 17.707031 17.292969 17.695312 17.300781 17.683594 Z M 17.449219 14.304688 C 17.449219 15.238281 17.210938 16.117188 16.796875 16.886719 L 16.746094 16.96875 C 16.714844 17.027344 16.675781 17.085938 16.640625 17.140625 C 16.554688 17.285156 16.460938 17.421875 16.363281 17.554688 C 16.335938 17.59375 16.304688 17.632812 16.277344 17.671875 C 16.21875 17.746094 16.160156 17.816406 16.097656 17.886719 C 16.066406 17.921875 16.035156 17.957031 16 17.992188 C 15.875 18.128906 15.742188 18.261719 15.601562 18.382812 C 15.585938 18.398438 15.570312 18.414062 15.554688 18.425781 C 15.476562 18.496094 15.394531 18.558594 15.3125 18.625 C 15.289062 18.640625 15.265625 18.660156 15.242188 18.675781 C 14.984375 18.871094 14.707031 19.042969 14.414062 19.1875 C 14.390625 19.199219 14.367188 19.210938 14.339844 19.222656 C 14.175781 19.304688 14 19.375 13.824219 19.4375 C 13.789062 19.449219 13.757812 19.464844 13.722656 19.476562 C 13.636719 19.503906 13.554688 19.527344 13.46875 19.554688 C 13.394531 19.574219 13.316406 19.59375 13.242188 19.613281 C 13.164062 19.628906 13.085938 19.648438 13.011719 19.664062 C 12.878906 19.6875 12.75 19.710938 12.613281 19.726562 C 12.566406 19.730469 12.519531 19.734375 12.46875 19.738281 C 12.3125 19.753906 12.148438 19.765625 11.988281 19.765625 C 11.824219 19.765625 11.664062 19.753906 11.503906 19.738281 C 11.457031 19.734375 11.40625 19.730469 11.359375 19.726562 C 11.226562 19.710938 11.09375 19.6875 10.964844 19.664062 C 10.886719 19.648438 10.808594 19.628906 10.734375 19.613281 C 10.65625 19.59375 10.578125 19.574219 10.503906 19.554688 C 10.417969 19.53125 10.335938 19.503906 10.253906 19.476562 C 10.21875 19.464844 10.183594 19.449219 10.148438 19.4375 C 9.972656 19.375 9.800781 19.304688 9.632812 19.222656 C 9.605469 19.210938 9.582031 19.199219 9.558594 19.1875 C 9.265625 19.042969 8.992188 18.871094 8.730469 18.675781 C 8.707031 18.660156 8.683594 18.640625 8.660156 18.625 C 8.578125 18.558594 8.496094 18.496094 8.417969 18.425781 C 8.402344 18.414062 8.386719 18.398438 8.371094 18.382812 C 8.230469 18.261719 8.097656 18.128906 7.972656 17.992188 C 7.941406 17.957031 7.90625 17.921875 7.875 17.886719 C 7.816406 17.816406 7.753906 17.746094 7.699219 17.671875 C 7.667969 17.632812 7.636719 17.59375 7.609375 17.554688 C 7.511719 17.421875 7.417969 17.285156 7.332031 17.140625 C 7.296875 17.085938 7.257812 17.027344 7.226562 16.96875 L 7.179688 16.886719 C 6.761719 16.117188 6.527344 15.238281 6.527344 14.304688 C 6.527344 12.117188 7.816406 10.234375 9.675781 9.363281 C 9.851562 9.28125 10.03125 9.207031 10.214844 9.144531 C 10.21875 9.140625 10.222656 9.140625 10.226562 9.136719 C 11.1875 8.808594 12.210938 8.757812 13.195312 8.980469 C 13.386719 9.023438 13.578125 9.082031 13.765625 9.144531 C 13.777344 9.148438 13.785156 9.152344 13.792969 9.15625 C 13.972656 9.21875 14.148438 9.292969 14.324219 9.375 C 16.167969 10.253906 17.449219 12.128906 17.449219 14.304688 Z M 14.105469 8.371094 C 14.085938 8.363281 14.066406 8.359375 14.042969 8.351562 C 13.925781 8.308594 13.804688 8.273438 13.679688 8.238281 C 13.605469 8.214844 13.527344 8.195312 13.449219 8.179688 C 13.351562 8.15625 13.25 8.132812 13.148438 8.113281 C 13.035156 8.089844 12.921875 8.074219 12.808594 8.058594 C 12.730469 8.050781 12.65625 8.039062 12.582031 8.03125 C 12.382812 8.011719 12.1875 8 11.988281 8 C 11.789062 8 11.59375 8.011719 11.398438 8.03125 C 11.320312 8.035156 11.246094 8.050781 11.171875 8.058594 C 11.058594 8.074219 10.945312 8.089844 10.832031 8.109375 C 10.734375 8.128906 10.632812 8.152344 10.535156 8.175781 C 10.457031 8.195312 10.378906 8.214844 10.304688 8.234375 C 10.183594 8.269531 10.066406 8.304688 9.949219 8.34375 C 9.929688 8.351562 9.914062 8.355469 9.894531 8.359375 L 9.894531 6.980469 C 10.234375 7.035156 10.578125 7.082031 10.929688 7.109375 C 10.9375 7.113281 10.945312 7.113281 10.953125 7.113281 C 11.300781 7.140625 11.648438 7.15625 12 7.15625 C 12.351562 7.15625 12.699219 7.140625 13.046875 7.113281 C 13.054688 7.113281 13.0625 7.113281 13.070312 7.109375 C 13.421875 7.082031 13.765625 7.035156 14.105469 6.980469 Z M 14.105469 8.371094"/>
    <path d="M11.574219 5.050781C11.574219 5.050781 11.578125 5.050781 11.578125 5.050781 11.8125 5.050781 12 4.863281 12 4.632812 12 4.398438 11.8125 4.210938 11.578125 4.210938 11.578125 4.210938 11.574219 4.210938 11.574219 4.210938 10.519531 4.210938 9.550781 4.050781 8.703125 3.734375 8.484375 3.652344 8.242188 3.765625 8.160156 3.984375 8.078125 4.203125 8.191406 4.445312 8.410156 4.523438 9.351562 4.875 10.417969 5.050781 11.574219 5.050781zM6.949219 2.09375C6.941406 1.859375 6.738281 1.675781 6.515625 1.683594 6.28125 1.691406 6.097656 1.882812 6.105469 2.117188 6.121094 2.671875 6.386719 3.207031 6.855469 3.625 6.9375 3.695312 7.035156 3.730469 7.136719 3.730469 7.25 3.730469 7.367188 3.683594 7.449219 3.589844 7.605469 3.414062 7.589844 3.148438 7.414062 2.996094 7.121094 2.734375 6.957031 2.414062 6.949219 2.09375zM6.949219 2.09375"/>
</svg>

<svg xmlns="http://www.w3.org/2000/svg" width="32" height="32" viewBox="0 0 24 24">
    <path d="M11.156 13.617c0 .938.766 1.703 1.707 1.703.285 0 .883 0 2.61-3.539a.577.577 0 1 0-.773-.773c-3.544 1.722-3.544 2.32-3.544 2.61zm1.668.86a.865.865 0 0 1-.824-.825c.105-.175.715-.683 2.36-1.535-.848 1.645-1.356 2.258-1.536 2.36zm0 0M11.578 10.527H12a.42.42 0 0 0 .422-.422.42.42 0 0 0-.422-.421h-.422a.423.423 0 0 0 0 .843zm0 0M12 17.684h-.422a.423.423 0 0 0 0 .843H12a.42.42 0 0 0 .422-.422.42.42 0 0 0-.422-.421zm0 0M8.21 13.473h-.42a.42.42 0 0 0-.423.422.42.42 0 0 0 .422.421h.422a.42.42 0 0 0 .422-.421.42.42 0 0 0-.422-.422zm0 0M15.367 13.895a.42.42 0 0 0 .422.421h.422a.42.42 0 0 0 .422-.421.42.42 0 0 0-.422-.422h-.422a.42.42 0 0 0-.422.422zm0 0"/>
    <path d="M21.684.422V0H2.316v.422c0 2.879 2.918 5.476 6.735 6.387V8.73a6.301 6.301 0 0 0-3.367 5.575c0 .902.195 1.758.539 2.539H4.78a1.621 1.621 0 0 0-1.523 2.176l1.199 3.296h1.992c-.176.489-.636.84-1.187.84a.422.422 0 0 0 0 .844c1.02 0 1.867-.727 2.062-1.684h9.77A2.111 2.111 0 0 0 19.156 24a.423.423 0 0 0 0-.844 1.26 1.26 0 0 1-1.183-.84h1.992l1.2-3.296a1.621 1.621 0 0 0-1.524-2.176H17.75a6.28 6.28 0 0 0 .54-2.54c0-2.406-1.356-4.5-3.34-5.562V6.81c3.816-.91 6.734-3.508 6.734-6.387zM3.187.844h17.625C20.532 2.977 18.13 5.199 14.712 6l-.274.059a11.175 11.175 0 0 1-1.343.203 14.59 14.59 0 0 1-.953.05h-.282a14.59 14.59 0 0 1-.59-.023c-.12-.008-.246-.016-.367-.027l-.316-.035a11.484 11.484 0 0 1-1.027-.168L9.285 6C5.871 5.2 3.47 2.977 3.187.844zm14.114 16.84h2.34c.257 0 .488.12.636.332a.78.78 0 0 1 .098.714l-1 2.743H5.043l-.996-2.743a.779.779 0 0 1 .734-1.046h1.895l.023.035c.051.078.102.152.153.226a6.787 6.787 0 0 0 .797.918c.046.043.097.09.148.133.133.121.27.23.41.34.04.027.078.059.117.086.094.066.188.129.281.191a6.116 6.116 0 0 0 .625.348c.043.02.083.043.125.059.098.046.2.093.305.136.05.02.106.035.156.055.157.059.313.11.473.156.09.024.184.047.277.07.07.016.141.036.215.051a7.129 7.129 0 0 0 .645.09c.187.016.375.027.562.027a6.603 6.603 0 0 0 1.207-.117c.07-.015.14-.035.215-.05l.277-.07c.16-.048.317-.098.47-.157.054-.02.105-.035.16-.055.101-.043.203-.09.304-.136.04-.016.082-.04.121-.06.188-.089.367-.187.543-.296.031-.02.059-.035.086-.05.094-.063.188-.126.277-.192.04-.027.079-.059.118-.086.144-.11.28-.219.414-.34.05-.043.097-.09.148-.133.07-.066.137-.136.203-.207.063-.058.117-.125.176-.187.09-.106.18-.211.266-.32.05-.067.101-.133.148-.204.055-.074.106-.148.156-.226.004-.012.016-.024.024-.035zm.148-3.38c0 .934-.238 1.813-.652 2.583l-.05.082c-.032.058-.071.117-.106.172-.086.144-.18.28-.278.414-.027.039-.058.078-.086.117a4.753 4.753 0 0 1-.18.215c-.03.035-.062.07-.097.105a4.7 4.7 0 0 1-.445.434c-.078.07-.16.133-.242.199-.024.016-.047.035-.07.05a5.133 5.133 0 0 1-.903.548 4.62 4.62 0 0 1-.516.215c-.035.011-.066.027-.101.039-.086.027-.168.05-.254.078-.074.02-.153.039-.227.058-.078.016-.156.035-.23.051-.133.023-.262.047-.399.063l-.144.011c-.156.016-.32.028-.48.028-.165 0-.325-.012-.485-.028l-.145-.011a6.387 6.387 0 0 1-.394-.063c-.078-.016-.156-.035-.23-.05l-.231-.06c-.086-.023-.168-.05-.25-.077-.035-.012-.07-.028-.106-.04a4.949 4.949 0 0 1-.59-.25 5.309 5.309 0 0 1-.828-.511c-.023-.016-.046-.035-.07-.051-.082-.066-.164-.129-.242-.2a4.7 4.7 0 0 1-.445-.434l-.098-.104c-.059-.07-.121-.14-.176-.215-.031-.04-.062-.078-.09-.117a5.095 5.095 0 0 1-.277-.414c-.035-.055-.074-.114-.105-.172l-.047-.082a5.39 5.39 0 0 1-.653-2.582 5.455 5.455 0 0 1 3.688-5.16c.004-.004.008-.004.012-.008a5.447 5.447 0 0 1 3.539.008 5.632 5.632 0 0 1 .559.23 5.465 5.465 0 0 1 3.124 4.93zm-3.344-5.933c-.02-.008-.039-.012-.062-.02a4.936 4.936 0 0 0-.363-.113 2.21 2.21 0 0 0-.23-.058 6.792 6.792 0 0 0-.302-.067c-.113-.023-.226-.039-.34-.054-.078-.008-.152-.02-.226-.028-.2-.02-.395-.031-.594-.031-.199 0-.394.012-.59.031-.078.004-.152.02-.226.028-.113.015-.227.03-.34.05a8.093 8.093 0 0 0-.937.25V6.98a12.696 12.696 0 0 0 1.058.133c.348.028.695.043 1.047.043s.7-.015 1.047-.043c.008 0 .015 0 .023-.004.352-.027.696-.074 1.035-.129zm0 0"/>
    <path d="M11.574 5.05h.004a.42.42 0 1 0 0-.84h-.004c-1.054 0-2.023-.16-2.87-.476a.422.422 0 0 0-.544.25.417.417 0 0 0 .25.54c.942.351 2.008.527 3.164.527zm0 0M6.95 2.094a.428.428 0 0 0-.434-.41.42.42 0 0 0-.41.433c.015.555.28 1.09.75 1.508.082.07.18.105.28.105.114 0 .231-.046.313-.14a.417.417 0 0 0-.035-.594c-.293-.262-.457-.582-.465-.902zm0 0"/>
</svg>
